src/systems/ec/resources/icons/src/general/hamburger.svg

<svg width="24" height="24" xmlns="http://www.w3.org/2000/svg" xmlns:xlink="http://www.w3.org/1999/xlink"><path d="M 0 19.199219 L 24 19.199219 L 24 21.601562 L 0 21.601562 Z M 0 10.800781 L 24 10.800781 L 24 13.199219 L 0 13.199219 Z M 0 2.398438 L 24 2.398438 L 24 4.800781 L 0 4.800781 Z M 0 2.398438"/></svg>

<svg width="24" height="24" xmlns="http://www.w3.org/2000/svg" xmlns:xlink="http://www.w3.org/1999/xlink"><path d="m0 19.2h24v2.4h-24zm0-8.4h24v2.4h-24zm0-8.4h24v2.4h-24z"/></svg>
